X: 1
T:The Caucus Reel
M:4/4
L:1/8
C:Jean Duval
S:The Dangerous Reel, by Mike & Mary Rafferty, Rapparee Records AVL95151,
K:G
| dBBd gggd | e2 dB AGAB | dBBd g2 bg | abge g4 :||
bggg ag e2 | geee dega | bggg a2 bg | abge g4 |
bggg ag e2 | geee dBGA | B2 BB AG E2 |1.GEDE G4 :||2.GEDE G3 d||
edgd edBd | egdB A3 d | e2 ge dBGB | gabg aa g2 |
edgd edBd | egdB AGEG | B2 BB AGEG | GEDE G4 :||
